svg/nature/campfire_line.svg

<svg xmlns="http://www.w3.org/2000/svg" width="24" height="24" viewBox="0 0 24 24"><g fill="none" fill-rule="evenodd"><path d="M24,0 L24,24 L0,24 L0,0 L24,0 Z M12.5935,23.2578 L12.5819,23.2595 L12.5109,23.295 L12.4919,23.2987 L12.4767,23.295 L12.4057,23.2595 C12.3958,23.2564 12.387,23.259 12.3821,23.2649 L12.378,23.2758 L12.3609,23.7031 L12.3659,23.7235 L12.3769,23.7357 L12.4805,23.8097 L12.4953,23.8136 L12.5071,23.8097 L12.6107,23.7357 L12.6233,23.7197 L12.6267,23.7031 L12.6096,23.2758 C12.6076,23.2657 12.601,23.2593 12.5935,23.2578 Z M12.8584,23.1453 L12.8445,23.1473 L12.6598,23.2397 L12.6499,23.2499 L12.6472,23.2611 L12.6651,23.6906 L12.6699,23.7034 L12.6784,23.7105 L12.8793,23.8032 C12.8914,23.8069 12.9022,23.803 12.9078,23.7952 L12.9118,23.7812 L12.8777,23.1665 C12.8753,23.1546 12.8674,23.147 12.8584,23.1453 Z M12.143,23.1473 C12.1332,23.1424 12.1222,23.1453 12.1156,23.1526 L12.1099,23.1665 L12.0758,23.7812 C12.0751,23.7927 12.0828,23.8019 12.0926,23.8046 L12.1083,23.8032 L12.3092,23.7105 L12.3186,23.7024 L12.3225,23.6906 L12.3404,23.2611 L12.3372,23.2485 L12.3278,23.2397 L12.143,23.1473 Z"/><path fill="#09244B" d="M19.9418,15.6637 C20.1275,16.1838 19.8565,16.756 19.3364,16.9417 L14.9732,18.5 L19.3364,20.0583 C19.8565,20.244 20.1275,20.8162 19.9418,21.3363 C19.756,21.8564 19.1838,22.1275 18.6637,21.9417 L12,19.5619 L5.33636,21.9417 C4.81626,22.1275 4.24404,21.8564 4.05829,21.3363 C3.87253,20.8162 4.14358,20.244 4.66369,20.0583 L9.02681,18.5 L4.66369,16.9417 C4.14358,16.756 3.87253,16.1838 4.05829,15.6637 C4.24404,15.1436 4.81626,14.8725 5.33636,15.0583 L12,17.4381 L18.6637,15.0583 C19.1838,14.8725 19.756,15.1436 19.9418,15.6637 Z M12.5528,2.10559 C12.9146,1.92471 13.3497,1.97956 13.6552,2.24456 C13.9224889,2.47637333 14.0446321,2.82905975 13.9853893,3.17060192 L13.9436203,3.34947109 C13.9410992,3.36332758 13.9383957,3.37968527 13.9357545,3.39835002 L13.9226127,3.53646982 C13.9183734,3.61781875 13.9191,3.71643625 13.9314,3.82708 C13.9706,4.18017 14.1289,4.71468 14.7071,5.29291 L14.8619222,5.44258259 L14.8619222,5.44258259 L15.5429407,6.06384818 L15.5429407,6.06384818 L15.884537,6.38677096 C16.6974185,7.17861691 17.5925111,8.24688 17.9702,9.75748 C18.4235,11.5709 17.9757,13.198 16.7884,14.3444 C15.6408,15.4524 13.9213,16.0000039 12,16.0000039 C8.83102,16.0000039 6.00003,13.9481 6.00003,10.5000039 C6.00003,7.80358 7.78177,5.67472 9.34152,4.30994 C10.1424,3.60916 10.9386,3.0623 11.5325,2.69108 C11.8645,2.48359 12.2026,2.28127 12.5528,2.10559 Z M12.1642,10.8766 L12,10.6306 L12,10.6306 L11.8359,10.8766 L11.8359,10.8766 C11.3436,11.6374 11,12.4002 11,12.9167 C11,13.5538 11.4858,14 12,14 C12.5142,14 13,13.5538 13,12.9167 C13,12.4002 12.6565,11.6374 12.1642,10.8766 Z M12.0788,4.72218 C11.6442,5.01767 11.1502,5.38489 10.6585,5.81509 C9.21828,7.07531 8.00003,8.69645 8.00003,10.5 C8.00003,11.4785 8.36618,12.3126 9.00003,12.9207 C9.00003,11.8486571 9.56174806,10.7414684 10.0464929,9.96359555 L10.4711172,9.29601914 L10.4711172,9.29601914 L10.6599405,9.01713442 C11.0240754,8.50260637 11.4844882,8 12,8 C12.5331765,8 12.9840394,8.49582785 13.3420775,9.00995717 L13.528102,9.28933619 L13.528102,9.28933619 L13.8434,9.7901 C14.3486,10.5709 15,11.7665 15,12.9167 C15,13.0251 14.9945,13.1325 14.9837,13.2385 C15.1384,13.135 15.2771,13.0235 15.3992,12.9056 C16.0244,12.302 16.3265,11.4291 16.0299,10.2425 C15.7922267,9.29182133 15.3063689,8.64980022 14.7139451,8.05293022 L14.3810875,7.73025874 L14.3810875,7.73025874 L14.0322,7.40704 C13.791,7.18516 13.5421,6.95632 13.2929,6.70712 C12.6241,6.03827 12.2606,5.3464 12.0788,4.72218 Z"/></g></svg>

<svg xmlns="http://www.w3.org/2000/svg" width="24" height="24"><g fill="none" fill-rule="evenodd"><path d="M24 0v24H0V0zM12.594 23.258l-.012.002-.071.035-.02.004-.014-.004-.071-.036c-.01-.003-.019 0-.024.006l-.004.01-.017.428.005.02.01.013.104.074.015.004.012-.004.104-.074.012-.016.004-.017-.017-.427c-.002-.01-.009-.017-.016-.018m.264-.113-.014.002-.184.093-.01.01-.003.011.018.43.005.012.008.008.201.092c.012.004.023 0 .029-.008l.004-.014-.034-.614c-.003-.012-.01-.02-.02-.022m-.715.002a.023.023 0 0 0-.027.006l-.006.014-.034.614c0 .012.007.02.017.024l.015-.002.201-.093.01-.008.003-.011.018-.43-.003-.012-.01-.01z"/><path fill="#09244B" d="M19.942 15.664a1 1 0 0 1-.606 1.278L14.973 18.5l4.363 1.558a1 1 0 1 1-.672 1.884L12 19.562l-6.664 2.38a1 1 0 1 1-.672-1.884L9.027 18.5l-4.363-1.558a1 1 0 1 1 .672-1.884L12 17.438l6.664-2.38a1 1 0 0 1 1.278.606m-7.39-13.558a1 1 0 0 1 1.433 1.065l-.041.178a1.26 1.26 0 0 0-.008.05l-.013.137c-.005.082-.004.18.008.291.04.353.198.888.776 1.466l.155.15.68.62.343.324c.812.792 1.708 1.86 2.085 3.37.454 1.814.006 3.441-1.182 4.587C15.641 15.452 13.921 16 12 16c-3.169 0-6-2.052-6-5.5 0-2.696 1.782-4.825 3.342-6.19.8-.7 1.597-1.248 2.19-1.619.332-.207.67-.41 1.02-.585m-.388 8.77L12 10.632l-.164.246c-.492.76-.836 1.523-.836 2.04 0 .637.486 1.083 1 1.083s1-.446 1-1.083c0-.517-.344-1.28-.836-2.04m-.085-6.154c-.435.296-.929.663-1.42 1.093C9.219 7.075 8 8.696 8 10.5c0 .979.366 1.813 1 2.42 0-1.071.562-2.179 1.046-2.956l.425-.668.189-.279C11.024 8.503 11.484 8 12 8c.533 0 .984.496 1.342 1.01l.186.28.315.5c.506.78 1.157 1.977 1.157 3.127 0 .108-.005.216-.016.322.154-.104.293-.216.415-.333.625-.604.928-1.477.63-2.664-.237-.95-.723-1.592-1.315-2.19l-.333-.322-.349-.323c-.241-.222-.49-.45-.74-.7-.668-.669-1.031-1.36-1.213-1.985"/></g></svg>
